!!!COM: Palestrina, Giovanni Perluigi da
!!!OPR: Benedicta es
!!!OTL: Kyrie
**kern	**kern	**kern	**kern	**kern	**kern
*Ibass	*Ibass	*Itenor	*Icalto	*Icalto	*Icant
!Bassus 2	!Bassus 1	!Tenor	!Altus 2	!Altus 1	!Cantus
*clefF4	*clefF4	*clefGv2	*clefG2	*clefG2	*clefG2
*k[]	*k[]	*k[]	*k[]	*k[]	*k[]
*G:mix	*G:mix	*G:mix	*G:mix	*G:mix	*G:mix
*M4/2	*M4/2	*M4/2	*M4/2	*M4/2	*M4/2
=1	=1	=1	=1	=1	=1
0r	0r	0r	1G	0r	0g
.	.	.	1G	.	.
=2	=2	=2	=2	=2	=2
0r	0r	0r	2.c	0r	0g
.	.	.	4d	.	.
.	.	.	4e	.	.
.	.	.	4f	.	.
.	.	.	4g	.	.
.	.	.	4e	.	.
=3	=3	=3	=3	=3	=3
0r	0r	0r	2f	0r	0a
.	.	.	2.d	.	.
.	.	.	4c	.	.
.	.	.	4d	.	.
.	.	.	4e	.	.
=4	=4	=4	=4	=4	=4
0r	0r	1D	2f	0r	0a
.	.	.	1g	.	.
.	.	1D	.	.	.
.	.	.	2f#	.	.
=5	=5	=5	=5	=5	=5
0r	1GG	2.G	1g	0G	0b
.	.	4A	.	.	.
.	1GG	4B	1d	.	.
.	.	4c	.	.	.
.	.	4d	.	.	.
.	.	4B	.	.	.
=6	=6	=6	=6	=6	=6
0r	2.C	1.c	0e	0G	0g
.	4D	.	.	.	.
.	4E	.	.	.	.
.	4F	.	.	.	.
.	4G	2B	.	.	.
.	4E	.	.	.	.
=7	=7	=7	=7	=7	=7
0r	2F	2A	2c	0A	0r
.	2.D	2.F	2d	.	.
.	.	.	[1f	.	.
.	4C	4E	.	.	.
.	4D	[2D	.	.	.
.	4E	.	.	.	.
=8	=8	=8	=8	=8	=8
0r	2F	2D]	2f]	0A	1r
.	1G	2C#	2e	.	.
.	.	1D	1d	.	1d
.	2F#	.	.	.	.
=9	=9	=9	=9	=9	=9
1GG	1G	1d	2r	0B	2d
.	.	.	2d	.	4g
.	.	.	.	.	4a
1GG	2r	2B	2d	.	4b
.	.	.	.	.	4cc
.	2G	[2G	[2g	.	4dd
.	.	.	.	.	4b
=10	=10	=10	=10	=10	=10
2.C	2E	2G]	4g]	0G	2.cc
.	.	.	4f	.	.
.	2C	2c	1e	.	.
4D	.	.	.	.	4b
4E	1G	2B	.	.	2g
4F	.	.	.	.	.
4G	.	2G	4d	.	2b
4E	.	.	4c#	.	.
=11	=11	=11	=11	=11	=11
2F	2D	1A	0d	2r	1a
2.D	2F	.	.	2A	.
.	2E	1D	.	2A	[1dd
4C	.	.	.	.	.
4D	[2D	.	.	[2f	.
4E	.	.	.	.	.
=12	=12	=12	=12	=12	=12
2F	4D]	2r	1d	4f]	1dd]
.	4C	.	.	4e	.
1G	2BB	2G	.	2d	.
.	1AA	[1c	1r	2e	1r
2F#	.	.	.	2c	.
=13	=13	=13	=13	=13	=13
1G	[0GG	2c]	1r	2e	0r
.	.	4B	.	2.d	.
.	.	4A	.	.	.
1r	.	2.B	1d	.	.
.	.	.	.	4c	.
.	.	.	.	4B	.
.	.	4c	.	4A	.
=14	=14	=14	=14	=14	=14
1G	1GG]	2d	1g	1B	2r
.	.	2e	.	.	2g
1A	1r	1c	2f	1r	1cc
.	.	.	[2e	.	.
=15	=15	=15	=15	=15	=15
2G	0r	1d	4e]	0r	2b
.	.	.	4d	.	.
2F	.	.	1d	.	2.a
1E	.	1G	.	.	.
.	.	.	.	.	4g
.	.	.	2c#	.	[2g
=16	=16	=16	=16	=16	=16
1D	1r	1A	1d	1r	2g]
.	.	.	.	.	2f#
1r	1C	1c	1e	2r	1g
.	.	.	.	2c	.
=17	=17	=17	=17	=17	=17
0r	1D	2B	1d	1f	0r
.	.	2.A	.	.	.
.	2C	.	2r	2e	.
.	.	4G	.	.	.
.	2BB	[2G	2G	[2d	.
=18	=18	=18	=18	=18	=18
1r	1AA	2G]	2.c	4d]	1r
.	.	.	.	4c	.
.	.	2F#	.	1c	.
.	.	.	4d	.	.
1G	1GG	1G	4e	.	1g
.	.	.	4f	.	.
.	.	.	2g	2B	.
=19	=19	=19	=19	=19	=19
1A	0r	1r	2f	2A	1cc
.	.	.	2.e	2c	.
2G	.	2r	.	1d	2b
.	.	.	4d	.	.
2F	.	2A	[2d	.	[2a
=20	=20	=20	=20	=20	=20
1E	0r	2B	2d]	1G	4a]
.	.	.	.	.	4g
.	.	2G	2c#	.	1g
1D	.	1A	[1d	2r	.
.	.	.	.	2A	2f#
=21	=21	=21	=21	=21	=21
0r	1r	1G	0d]	1.B	2.g
.	.	.	.	.	4a
.	[1G	1r	.	.	2.b
.	.	.	.	4A	.
.	.	.	.	4G	4cc
=22	=22	=22	=22	=22	=22
0r	2G]	1D	0r	2B	1dd
.	2F	.	.	2A	.
.	2.E	2.G	.	2.c	2r
.	.	.	.	.	2g
.	4D	4F	.	4B	.
=23	=23	=23	=23	=23	=23
0r	2C	2E	1r	2A	2a
.	2BB	2D	.	1G	2b
.	1AA	1C	1A	.	1cc
.	.	.	.	2F#	.
=24	=24	=24	=24	=24	=24
1r	1GG	1D	1.B	2G	1b
.	.	.	.	1d	.
[1G	1r	1E	.	.	1g
.	.	.	4A	2c	.
.	.	.	4G	.	.
=25	=25	=25	=25	=25	=25
2G]	0r	1D	2B	1d	1r
2F	.	.	2A	.	.
2.E	.	1G	2.c	[1e	1g
4D	.	.	4B	.	.
=26	=26	=26	=26	=26	=26
2C	0r	2r	2A	2e]	2a
2BB	.	2d	1G	2d	2b
1AA	.	2c	.	2e	1cc
.	.	2A	2F#	2c	.
=27	=27	=27	=27	=27	=27
1GG	2r	1B	1G	2r	2b
.	2G	.	.	2d	2g
[1D	2F	[1A	1r	[1f	1a
.	2D	.	.	.	.
=28	=28	=28	=28	=28	=28
1D]	2.F	1A]	0r	2f]	1.dd
.	.	.	.	4e	.
.	4G	.	.	4d	.
1AA	1A	1r	.	2f	.
.	.	.	.	2e	2cc
=29	=29	=29	=29	=29	=29
0r	0G	0r	0r	2.g	2.b
.	.	.	.	4f	4a
.	.	.	.	2e	2g
.	.	.	.	[2d	2f
=30	=30	=30	=30	=30	=30
0r	1A	2r	0r	2d]	4e
.	.	.	.	.	4d
.	.	2A	.	2c	2.e
.	2.G	[1B	.	1d	.
.	.	.	.	.	4d
.	.	.	.	.	[2d
.	4F	.	.	.	.
=31	=31	=31	=31	=31	=31
1.G	1E	2B]	0r	1G	2d]
.	.	4A	.	.	2c#
.	.	4G	.	.	.
.	1D	2B	.	2r	1d
2F	.	2A	.	2A	.
=32	=32	=32	=32	=32	=32
2E	0r	2c	2r	2G	0r
2D	.	2B	2d	2F	.
2.C	.	4A	[1e	[1c	.
.	.	4G	.	.	.
.	.	[2G	.	.	.
4BB	.	.	.	.	.
=33	=33	=33	=33	=33	=33
1AA	1r	2G]	2e]	1c]	1a
.	.	2F#	4d	.	.
.	.	.	4c	.	.
1GG	1G	[1G	2e	2B	[1b
.	.	.	[2d	2G	.
=34	=34	=34	=34	=34	=34
1r	2E	1G]	2d]	1.g	2b]
.	2E	.	2c#	.	4a
.	.	.	.	.	4g
1D	1D	1r	1d	.	2b
.	.	.	.	2f	2a
=35	=35	=35	=35	=35	=35
2E	0C	2r	1g	2.e	2.cc
2.C	.	1E	.	.	.
.	.	.	.	4d	4b
.	.	.	2e	2c	2a
4D	.	.	.	.	.
4E	.	2E	2e	2B	[2g
4C	.	.	.	.	.
=36	=36	=36	=36	=36	=36
0D	1r	2A	0d	0A	2g]
.	.	1D	.	.	4f#
.	.	.	.	.	4e
.	1D	.	.	.	1f#
.	.	[2d	.	.	.
=37	=37	=37	=37	=37	=37
0GG	1D	4d]	2.B	2G	[0g
.	.	4c	.	.	.
.	.	4B	.	1d	.
.	.	4A	4c	.	.
.	2.G	1B	1d	.	.
.	.	.	.	2B	.
.	4F	.	.	.	.
=38	=38	=38	=38	=38	=38
0C	1E	0A	0c	0e	1g_
.	1C	.	.	.	1g_
=39	=39	=39	=39	=39	=39
0GG	0D	0G	0B	0d	0g]
=40	=40	=40	=40	=40	=40
0r	1G	0r	2.G	0r	0r
.	.	.	4A	.	.
.	2G	.	4B	.	.
.	.	.	4c	.	.
.	2G	.	2d	.	.
=41	=41	=41	=41	=41	=41
1r	2A	1r	4c	0r	0r
.	.	.	4A	.	.
.	2F	.	2c	.	.
2r	1G	2.G	2.B	.	.
2G	.	.	.	.	.
.	.	4A	4c	.	.
=42	=42	=42	=42	=42	=42
2G	1GG	4B	2d	0r	0r
.	.	4c	.	.	.
2G	.	2d	2g	.	.
2A	1r	4c	2e	.	.
.	.	4A	.	.	.
2F	.	2c	2f	.	.
=43	=43	=43	=43	=43	=43
0G	0r	2B	2.d	2r	0r
.	.	4G	.	2d	.
.	.	4A	4c	.	.
.	.	4B	4B	2d	.
.	.	4c	4A	.	.
.	.	2d	2B	2d	.
=44	=44	=44	=44	=44	=44
1C	0r	2.c	2G	2e	2.g
.	.	.	2g	2c	.
.	.	4B	.	.	4a
1r	.	2G	2g	2d	4b
.	.	.	.	.	4cc
.	.	2B	2g	2G	2dd
=45	=45	=45	=45	=45	=45
0r	1r	1A	2a	2.c	4cc
.	.	.	.	.	4a
.	.	.	2f	.	2cc
.	.	.	.	4d	.
.	2r	1G	1g	2e	2b
.	2G	.	.	2d	4g
.	.	.	.	.	4a
=46	=46	=46	=46	=46	=46
0r	2G	2r	1d	2.g	4b
.	.	.	.	.	4cc
.	2G	2B	.	.	2dd
.	.	.	.	4f	.
.	2A	2c	1r	2e	4cc
.	.	.	.	.	4a
.	2F	2A	.	2f	2cc
=47	=47	=47	=47	=47	=47
1G	1G	2.B	1g	0d	2b
.	.	.	.	.	4g
.	.	4c	.	.	4a
2G	1GG	2d	2g	.	4b
.	.	.	.	.	4cc
2G	.	2B	2g	.	[2dd
=48	=48	=48	=48	=48	=48
2A	0r	1c	2e	1r	4dd]
.	.	.	.	.	4cc
2F	.	.	2f	.	1cc
1G	.	2r	1d	1g	.
.	.	2G	.	.	2b
=49	=49	=49	=49	=49	=49
1C	1C	2G	1r	2e	1cc
.	.	2.A	.	2c	.
1r	2BB	.	2r	1d	1r
.	.	4G	.	.	.
.	2GG	[2G	2g	.	.
=50	=50	=50	=50	=50	=50
0r	1AA	2G]	2e	1c	1cc
.	.	2F#	2c	.	.
.	1GG	1G	2e	2r	2b
.	.	.	[2d	2g	2g
=51	=51	=51	=51	=51	=51
0r	1C	1r	4d]	2f	2.a
.	.	.	4e	.	.
.	.	.	2f	2d	.
.	.	.	.	.	4b
.	2AA	2r	4c	1e	2cc
.	.	.	4d	.	.
.	2C	2c	4e	.	2g
.	.	.	4f	.	.
=52	=52	=52	=52	=52	=52
1G	1GG	2B	1g	2.d	1b
.	.	2G	.	.	.
.	.	.	.	4e	.
2F	1D	2A	2r	4f	1a
.	.	.	.	4g	.
2D	.	2F	2f	[2a	.
=53	=53	=53	=53	=53	=53
1E	0r	1G	2e	4a]	0r
.	.	.	.	4g	.
.	.	.	2c	1g	.
1D	.	2.A	1d	.	.
.	.	.	.	2f	.
.	.	4B	.	.	.
=54	=54	=54	=54	=54	=54
1C	0r	1c	2G	1e	0r
.	.	.	2.A	.	.
2BB	.	2r	.	2d	.
.	.	.	4G	.	.
2GG	.	2d	[2G	2B	.
=55	=55	=55	=55	=55	=55
1AA	1r	2c	2G]	2e	1cc
.	.	2A	2F#	4d	.
.	.	.	.	4c	.
2GG	1G	1B	1G	2e	2b
2G	.	.	.	2d	2g
=56	=56	=56	=56	=56	=56
2D	2F	1A	1r	1f	1a
2F	2D	.	.	.	.
1C	1E	2r	2r	2e	1g
.	.	2G	[2c	2c	.
=57	=57	=57	=57	=57	=57
0r	1D	2F	2c]	1d	2r
.	.	2D	2B	.	2f
.	1C	1E	2G	1r	2e
.	.	.	[2A	.	2c
=58	=58	=58	=58	=58	=58
0r	2BB	2D	4A]	1r	1d
.	.	.	4G	.	.
.	2GG	2d	1G	.	.
.	1AA	2c	.	2r	1a
.	.	2A	2F#	2c	.
=59	=59	=59	=59	=59	=59
1G	2GG	1B	4G	2B	2.d
.	.	.	4A	.	.
.	2G	.	4B	2G	.
.	.	.	4c	.	4e
2F	2D	2.A	1d	2A	4f
.	.	.	.	.	4g
2D	2F	.	.	2F	2a
.	.	4B	.	.	.
=60	=60	=60	=60	=60	=60
0E	4C	2c	1r	0G	2g
.	4D	.	.	.	.
.	4E	4C	.	.	2cc
.	4F	4D	.	.	.
.	2G	4E	2r	.	2b
.	.	4F	.	.	.
.	2C	[2G	2c	.	2g
=61	=61	=61	=61	=61	=61
2D	1GG	4G]	2B	1g	1b
.	.	4A	.	.	.
2G	.	4B	2G	.	.
.	.	4c	.	.	.
2D	2r	2d	[1A	2f	1a
2F	2D	2A	.	2d	.
=62	=62	=62	=62	=62	=62
4C	2AA	1c	2A]	1e	2r
4D	.	.	.	.	.
4E	2C	.	2G	.	2cc
4F	.	.	.	.	.
1G	1GG	2r	1g	[1d	2b
.	.	2G	.	.	2g
=63	=63	=63	=63	=63	=63
2r	1D	2D	2f	1d]	2.a
2D	.	2F	2d	.	.
.	.	.	.	.	4b
2AA	1r	4C	1e	1c	2cc
.	.	4D	.	.	.
2C	.	4E	.	.	2g
.	.	4F	.	.	.
=64	=64	=64	=64	=64	=64
1GG	2r	1G	1d	2B	1b
.	2G	.	.	2G	.
2D	2D	2F	1f	[1A	2.a
2D	2F	2D	.	.	.
.	.	.	.	.	4b
=65	=65	=65	=65	=65	=65
2AA	4C	1E	2e	2A]	1.cc
.	4D	.	.	.	.
2C	4E	.	2c	2.G	.
.	4C	.	.	.	.
[1GG	1G	1D	2d	.	.
.	.	.	.	4A	.
.	.	.	[2G	4B	4b
.	.	.	.	4c	4a
=66	=66	=66	=66	=66	=66
1GG]	1D	1G	2G]	1d	1b
.	.	.	1g	.	.
[1D	[1D	[1A	.	[1d	[1a
.	.	.	4f#	.	.
.	.	.	4e	.	.
=67	=67	=67	=67	=67	=67
1D]	1D]	1A]	1f#	1d]	1a]
==	==	==	==	==	==
*-	*-	*-	*-	*-	*-
!!!CDT: 1525/^1526/-1594/2/2
!!!OCY: Italia
!!!AGN: Mass (Parody)
!!!AST: renaissance, vocal
!!!ASW: Motet 1520 (Josquin)
!!!PWK: Masses, Book 11
!!!RNB: Cadence finals: D
!!!YOR: Le Opere Complete, v. 28, p. 222
!!!YOO: Rome, Italy: Fratelli Scalera
!!!END: 1992//
!!!EED: John Miller
!!!YEC: Copyright 2000, John Miller
!!!YEN: United States of America
!!!YEM: Rights to all derivative electronic formats reserved.
!!!YEM: Refer to licensing agreement for further details.
!!!YEM: This file must be accompanied by the licensing agreement.
!!!YEM: A copy of the licensing agreement may be found at http://www.music-cog.ohio-state.edu/HumdrumDatabases/Palestrina/license.txt
!!!EMD: converted to Humdrum by Bret Aarden
